lib/flags/pf-french-polynesia.svg

<svg xmlns="http://www.w3.org/2000/svg" fill="none" aria-hidden="true" viewBox="0 0 42 30"><g id="Country=PF - French Polynesia, Size=sm (36x24)" filter="url(#filter0_dd_91_25916)"><g clip-path="url(#clip0_91_25916)"><g id="flag"><mask id="mask0_91_25916" width="36" height="24" x="3" y="2" maskUnits="userSpaceOnUse" style="mask-type:alpha"><rect id="mask" width="36" height="24" x="3" y="2" fill="white"/></mask><g mask="url(#mask0_91_25916)"><g id="contents"><path id="background" fill="#F7FCFF" fill-rule="evenodd" d="M3 2V26H39V2H3Z" clip-rule="evenodd"/><mask id="mask1_91_25916" width="36" height="24" x="3" y="2" maskUnits="userSpaceOnUse" style="mask-type:alpha"><path id="background_2" fill="white" fill-rule="evenodd" d="M3 2V26H39V2H3Z" clip-rule="evenodd"/></mask><g mask="url(#mask1_91_25916)"><path id="top" fill="#BF2714" fill-rule="evenodd" d="M3 2V8H39V2H3Z" clip-rule="evenodd"/><path id="bottom" fill="#BF2714" fill-rule="evenodd" d="M3 20V26H39V20H3Z" clip-rule="evenodd"/><g id="mark"><mask id="mask2_91_25916" width="14" height="12" x="14" y="8" maskUnits="userSpaceOnUse" style="mask-type:alpha"><path id="Oval 21" fill="white" fill-rule="evenodd" d="M21 20C24.7279 20 27.75 17.3137 27.75 14C27.75 10.6863 24.7279 8 21 8C17.2721 8 14.25 10.6863 14.25 14C14.25 17.3137 17.2721 20 21 20Z" clip-rule="evenodd"/></mask><g mask="url(#mask2_91_25916)"><g id="waves"><path id="Path 57" fill="#5277B9" fill-rule="evenodd" d="M14.8614 15.7493C14.801 15.5812 14.9779 15.4261 15.1367 15.508L15.6281 15.7615C15.6796 15.7881 15.7403 15.7905 15.7938 15.7682L16.8747 15.3184C16.9343 15.2936 17.0022 15.2996 17.0565 15.3344L18.1964 16.0657L19.764 15.3155C19.8129 15.2921 19.8692 15.2899 19.9198 15.3094L21.1245 15.7746C21.1723 15.7931 21.2255 15.7921 21.2727 15.7719L22.3544 15.3091C22.3999 15.2896 22.451 15.288 22.4976 15.3045L23.829 15.7773C23.8763 15.7941 23.9282 15.7922 23.974 15.772L25.014 15.3146C25.0658 15.2919 25.1249 15.2925 25.1762 15.3164L26.1361 15.7632C26.1907 15.7886 26.2539 15.7876 26.3076 15.7605L26.8566 15.4841C27.0107 15.4065 27.183 15.5508 27.1335 15.7162L27.029 16.0657H14.975L14.8614 15.7493Z" clip-rule="evenodd"/><path id="Path 57_2" fill="#5277B9" fill-rule="evenodd" d="M14.8569 16.9338C14.7983 16.7647 14.9777 16.6115 15.1355 16.6959L15.59 16.9389C15.6428 16.9671 15.7056 16.9697 15.7606 16.946L16.7916 16.5013C16.8528 16.4749 16.9231 16.4812 16.9785 16.5181L18.073 17.2459L19.5805 16.4981C19.6307 16.4732 19.6891 16.4709 19.741 16.4917L20.893 16.9527C20.9423 16.9725 20.9974 16.9714 21.0459 16.9499L22.08 16.4913C22.1267 16.4706 22.1797 16.4689 22.2277 16.4865L23.5024 16.9556C23.551 16.9735 23.6048 16.9715 23.6519 16.95L24.6453 16.4973C24.6985 16.473 24.7597 16.4737 24.8124 16.4991L25.7276 16.9407C25.7836 16.9677 25.849 16.9666 25.9041 16.9379L26.4143 16.6716C26.5677 16.5916 26.7423 16.7343 26.6943 16.9005L26.5947 17.2459H14.9651L14.8569 16.9338Z" clip-rule="evenodd"/><path id="Path 57_3" fill="#5277B9" fill-rule="evenodd" d="M15.0781 17.7209C15.0195 17.5518 15.1989 17.3986 15.3567 17.483L15.8112 17.726C15.864 17.7542 15.9268 17.7569 15.9818 17.7331L17.0128 17.2884C17.074 17.262 17.1443 17.2683 17.1997 17.3052L18.2942 18.033L19.8017 17.2852C19.8519 17.2603 19.9102 17.258 19.9622 17.2788L21.1142 17.7399C21.1635 17.7596 21.2186 17.7586 21.2671 17.7371L22.3012 17.2784C22.3479 17.2577 22.4009 17.256 22.4489 17.2736L23.7236 17.7427C23.7722 17.7606 23.826 17.7586 23.8731 17.7371L24.8665 17.2844C24.9197 17.2601 24.9809 17.2608 25.0335 17.2862L25.9488 17.7278C26.0048 17.7548 26.0702 17.7537 26.1253 17.725L26.6355 17.4587C26.7889 17.3787 26.9635 17.5214 26.9155 17.6876L26.8159 18.033H15.1862L15.0781 17.7209Z" clip-rule="evenodd"/><path id="Path 57_4" fill="#5277B9" fill-rule="evenodd" d="M16.4062 18.5075C16.3476 18.3384 16.527 18.1853 16.6849 18.2697L17.1393 18.5126C17.1921 18.5408 17.2549 18.5435 17.31 18.5197L18.341 18.075C18.4021 18.0486 18.4724 18.0549 18.5278 18.0918L19.6223 18.8196L21.1298 18.0718C21.18 18.0469 21.2384 18.0446 21.2903 18.0654L22.4423 18.5265C22.4916 18.5462 22.5467 18.5452 22.5952 18.5237L23.6293 18.065C23.6761 18.0443 23.729 18.0426 23.777 18.0602L25.0517 18.5294C25.1004 18.5473 25.1541 18.5452 25.2013 18.5238L26.1946 18.071C26.2478 18.0467 26.309 18.0474 26.3617 18.0728L27.2769 18.5144C27.3329 18.5414 27.3983 18.5404 27.4534 18.5116L27.9636 18.2453C28.117 18.1653 28.2916 18.308 28.2436 18.4743L28.144 18.8196H16.5144L16.4062 18.5075Z" clip-rule="evenodd"/><path id="Path 57_5" fill="#5277B9" fill-rule="evenodd" d="M14.6357 19.4914C14.5771 19.3223 14.7565 19.1691 14.9144 19.2535L15.3688 19.4965C15.4216 19.5247 15.4844 19.5274 15.5394 19.5036L16.5705 19.0589C16.6316 19.0325 16.7019 19.0388 16.7573 19.0757L17.8518 19.8035L19.3593 19.0557C19.4095 19.0308 19.4679 19.0285 19.5198 19.0493L20.6718 19.5104C20.7211 19.5301 20.7762 19.5291 20.8247 19.5076L21.8588 19.0489C21.9055 19.0282 21.9585 19.0265 22.0065 19.0441L23.2812 19.5133C23.3299 19.5312 23.3836 19.5291 23.4307 19.5076L24.4241 19.0549C24.4773 19.0306 24.5385 19.0313 24.5912 19.0567L25.5064 19.4983C25.5624 19.5253 25.6278 19.5242 25.6829 19.4955L26.1931 19.2292C26.3465 19.1492 26.5211 19.2919 26.4731 19.4582L26.3735 19.8035H14.7439L14.6357 19.4914Z" clip-rule="evenodd"/></g><g id="boat"><path id="Path 59" fill="#FF0000" d="M19.2252 16.1379V17.1379C18.2753 17.1379 17.6033 16.6194 17.2766 15.6988L17.2505 15.5483V11.4458H18.3755V15.468C18.5629 15.9484 18.8266 16.1379 19.2252 16.1379Z"/><path id="Path 59_2" fill="#FF0000" d="M22.3407 16.1379V17.1379C23.2906 17.1379 23.9626 16.6194 24.2894 15.6988L24.3154 15.5483V11.4458H23.1904V15.468C23.003 15.9484 22.7393 16.1379 22.3407 16.1379Z"/><path id="Path 60" fill="#FF0000" fill-rule="evenodd" d="M21.8155 8.90882C21.8155 8.90882 19.9492 8.47504 19.9492 9.57498C19.9492 10.6749 19.9492 13.0371 19.9492 13.0371L22.1249 13.6115V10.7817C22.1249 10.7817 21.0371 10.1908 21.0371 9.72874C21.0371 9.26667 21.8155 8.90882 21.8155 8.90882Z" clip-rule="evenodd"/></g><g id="cross"><path id="Path 61" stroke="black" d="M18.6753 14.8904L19.3848 14.0845"/><path id="Path 62" stroke="black" d="M19.3224 14.864L18.6426 14.0532"/></g><g id="cross_2"><path id="Path 61_2" stroke="black" d="M19.6934 14.8904L20.4029 14.0845"/><path id="Path 62_2" stroke="black" d="M20.3405 14.864L19.6606 14.0532"/></g><g id="cross_3"><path id="Path 61_3" stroke="black" d="M20.667 14.8904L21.3765 14.0845"/><path id="Path 62_3" stroke="black" d="M21.3141 14.864L20.6343 14.0532"/></g><g id="cross_4"><path id="Path 61_4" stroke="black" d="M21.6851 14.8904L22.3946 14.0845"/><path id="Path 62_4" stroke="black" d="M22.3322 14.864L21.6523 14.0532"/></g><g id="cross_5"><path id="Path 61_5" stroke="black" d="M22.7031 14.8904L23.4127 14.0845"/><path id="Path 62_5" stroke="black" d="M23.3503 14.864L22.6704 14.0532"/></g><path id="Combined Shape" fill="#FA8F21" fill-rule="evenodd" d="M18.1364 9.09487L19.4829 11.4331L19.6486 9.09487L19.4829 8.63428L18.1364 9.09487ZM17.4618 11.0903L16.4917 10.176L17.4618 9.14844L19.5008 12.0458V12.7822L18.5204 12.0458V11.0903H17.4618ZM15.3261 11.7947L17.0955 12.5476L17.2338 11.3843L15.7606 10.2654L15.3261 11.7947ZM17.1849 13.7257L14.8574 13.514V12.0549L17.1849 12.8507V13.7257ZM14.7943 15.1589L14.5181 13.9182L17.1416 14.0345V15.1589H14.7943ZM18.4882 13.1203V12.42L19.4694 13.1203L19.3629 13.4901L18.4882 13.1203ZM27.6158 13.9182L27.3396 15.1589H24.9923V14.0345L27.6158 13.9182ZM24.949 13.7257L27.2765 13.514V12.0549L24.949 12.8507V13.7257ZM26.8078 11.7947L25.0383 12.5476L24.9001 11.3843L26.3733 10.2654L26.8078 11.7947ZM24.672 11.0903L25.6421 10.176L24.672 9.14844L22.633 12.0458V12.7822L23.6135 12.0458V11.0903H24.672ZM23.9975 9.09487L22.651 11.4331L22.4852 9.09487L22.651 8.63428L23.9975 9.09487ZM23.6456 13.1203V12.42L22.6645 13.1203L22.771 13.4901L23.6456 13.1203Z" clip-rule="evenodd"/></g></g></g></g></g></g></g></g><defs><filter id="filter0_dd_91_25916" width="42" height="30" x="0" y="0" color-interpolation-filters="sRGB" filterUnits="userSpaceOnUse"><feFlood flood-opacity="0" result="BackgroundImageFix"/><feColorMatrix in="SourceAlpha" result="hardAlpha" values="0 0 0 0 0 0 0 0 0 0 0 0 0 0 0 0 0 0 127 0"/><feOffset dy="1"/><feGaussianBlur stdDeviation="1"/><feColorMatrix values="0 0 0 0 0.0627451 0 0 0 0 0.0941176 0 0 0 0 0.156863 0 0 0 0.06 0"/><feBlend in2="BackgroundImageFix" result="effect1_dropShadow_91_25916"/><feColorMatrix in="SourceAlpha" result="hardAlpha" values="0 0 0 0 0 0 0 0 0 0 0 0 0 0 0 0 0 0 127 0"/><feOffset dy="1"/><feGaussianBlur stdDeviation="1.5"/><feColorMatrix values="0 0 0 0 0.0627451 0 0 0 0 0.0941176 0 0 0 0 0.156863 0 0 0 0.1 0"/><feBlend in2="effect1_dropShadow_91_25916" result="effect2_dropShadow_91_25916"/><feBlend in="SourceGraphic" in2="effect2_dropShadow_91_25916" result="shape"/></filter><clipPath id="clip0_91_25916"><rect width="36" height="24" x="3" y="2" fill="white" rx="2"/></clipPath></defs></svg>

<svg xmlns="http://www.w3.org/2000/svg" fill="none" aria-hidden="true" viewBox="0 0 42 30"><g filter="url(#a)"><g clip-path="url(#b)"><mask id="c" width="36" height="24" x="3" y="2" maskUnits="userSpaceOnUse" style="mask-type:alpha"><path fill="#fff" d="M3 2h36v24H3z"/></mask><g mask="url(#c)"><path fill="#F7FCFF" fill-rule="evenodd" d="M3 2v24h36V2H3Z" clip-rule="evenodd"/><mask id="d" width="36" height="24" x="3" y="2" maskUnits="userSpaceOnUse" style="mask-type:alpha"><path fill="#fff" fill-rule="evenodd" d="M3 2v24h36V2H3Z" clip-rule="evenodd"/></mask><g mask="url(#d)"><path fill="#BF2714" fill-rule="evenodd" d="M3 2v6h36V2H3Zm0 18v6h36v-6H3Z" clip-rule="evenodd"/><mask id="e" width="14" height="12" x="14" y="8" maskUnits="userSpaceOnUse" style="mask-type:alpha"><path fill="#fff" fill-rule="evenodd" d="M21 20c3.728 0 6.75-2.686 6.75-6S24.728 8 21 8s-6.75 2.686-6.75 6 3.022 6 6.75 6Z" clip-rule="evenodd"/></mask><g mask="url(#e)"><path fill="#5277B9" fill-rule="evenodd" d="M14.861 15.75a.197.197 0 0 1 .276-.242l.491.254a.196.196 0 0 0 .166.006l1.08-.45a.197.197 0 0 1 .183.016l1.14.732 1.567-.75a.197.197 0 0 1 .156-.007l1.204.466a.196.196 0 0 0 .149-.003l1.081-.463a.197.197 0 0 1 .144-.004l1.331.472c.047.017.1.015.145-.005l1.04-.457a.197.197 0 0 1 .162.001l.96.447a.197.197 0 0 0 .172-.002l.549-.277a.197.197 0 0 1 .277.232l-.105.35H14.975l-.114-.317Zm-.004 1.184a.197.197 0 0 1 .279-.238l.454.243c.053.028.116.03.17.007l1.032-.445a.197.197 0 0 1 .186.017l1.095.728 1.508-.748a.197.197 0 0 1 .16-.006l1.152.46c.05.02.104.02.153-.002l1.034-.459c.047-.02.1-.022.148-.005l1.274.47a.197.197 0 0 0 .15-.006l.993-.453a.197.197 0 0 1 .167.002l.916.442a.197.197 0 0 0 .176-.003l.51-.266a.197.197 0 0 1 .28.229l-.1.345H14.966l-.108-.312Zm.221.786a.197.197 0 0 1 .279-.237l.454.243c.053.028.116.03.17.007l1.032-.445a.197.197 0 0 1 .187.017l1.094.728 1.508-.748a.197.197 0 0 1 .16-.006l1.152.46c.05.02.105.02.153-.002l1.034-.459a.2.2 0 0 1 .148-.004l1.275.469a.197.197 0 0 0 .15-.006l.992-.453a.196.196 0 0 1 .168.002l.915.442a.197.197 0 0 0 .176-.003l.51-.266a.197.197 0 0 1 .28.229l-.1.345H15.187l-.108-.312Zm1.328.788a.197.197 0 0 1 .279-.238l.454.243a.2.2 0 0 0 .171.007l1.031-.445a.196.196 0 0 1 .187.017l1.094.728 1.508-.748a.197.197 0 0 1 .16-.007l1.152.461c.05.02.105.02.153-.002l1.034-.459c.047-.02.1-.022.148-.005l1.275.47a.197.197 0 0 0 .15-.006l.993-.453a.197.197 0 0 1 .167.002l.915.441a.197.197 0 0 0 .176-.002l.51-.267a.197.197 0 0 1 .28.23l-.099.345h-11.63l-.108-.313Zm-1.77.983a.197.197 0 0 1 .278-.238l.455.244c.053.028.115.03.17.007l1.031-.445a.196.196 0 0 1 .187.017l1.095.727 1.507-.747a.197.197 0 0 1 .16-.007l1.153.461c.05.02.104.02.153-.002l1.034-.46c.046-.02.1-.021.147-.004l1.275.47a.197.197 0 0 0 .15-.006l.993-.453a.197.197 0 0 1 .167.002l.915.441a.197.197 0 0 0 .177-.003l.51-.266a.197.197 0 0 1 .28.23l-.1.345h-11.63l-.107-.313Z" clip-rule="evenodd"/><g fill="red"><path d="M19.225 16.138v1c-.95 0-1.622-.519-1.948-1.44l-.027-.15v-4.102h1.125v4.022c.188.48.452.67.85.67Zm3.115 0v1c.95 0 1.623-.519 1.95-1.44l.025-.15v-4.102H23.19v4.022c-.187.48-.45.67-.85.67Z"/><path fill-rule="evenodd" d="M21.816 8.909s-1.867-.434-1.867.666v3.462l2.176.574v-2.83s-1.088-.59-1.088-1.052c0-.462.779-.82.779-.82Z" clip-rule="evenodd"/></g><path stroke="#000" d="m18.675 14.89.71-.806m-.063.78-.68-.81m1.051.836.71-.806m-.063.78-.68-.81m1.007.836.71-.806m-.063.78-.68-.81m1.051.836.71-.806m-.063.78-.68-.81m1.051.836.71-.806m-.063.78-.68-.81"/><path fill="#FA8F21" fill-rule="evenodd" d="m18.136 9.095 1.347 2.338.166-2.338-.166-.46-1.347.46Zm-.674 1.995-.97-.914.97-1.028 2.039 2.898v.736l-.98-.736v-.956h-1.06Zm-2.136.705 1.77.753.138-1.164-1.473-1.119-.435 1.53Zm1.859 1.93-2.328-.211v-1.46l2.328.797v.875Zm-2.39 1.434-.277-1.24 2.624.115v1.125h-2.348Zm3.693-2.039v-.7l.981.7-.106.37-.875-.37Zm9.128.798-.276 1.24h-2.348v-1.123l2.624-.117Zm-2.667-.192 2.327-.212v-1.46l-2.327.797v.875Zm1.859-1.931-1.77.753-.138-1.164 1.473-1.119.435 1.53Zm-2.136-.705.97-.914-.97-1.028-2.039 2.898v.736l.98-.736v-.956h1.059Zm-.675-1.995-1.346 2.338-.166-2.338.166-.46 1.346.46Zm-.351 4.025v-.7l-.982.7.107.37.875-.37Z" clip-rule="evenodd"/></g></g></g></g></g><defs><clipPath id="b"><rect width="36" height="24" x="3" y="2" fill="#fff" rx="2"/></clipPath><filter id="a" width="42" height="30" x="0" y="0" color-interpolation-filters="sRGB" filterUnits="userSpaceOnUse"><feFlood flood-opacity="0" result="BackgroundImageFix"/><feColorMatrix in="SourceAlpha" result="hardAlpha" values="0 0 0 0 0 0 0 0 0 0 0 0 0 0 0 0 0 0 127 0"/><feOffset dy="1"/><feGaussianBlur stdDeviation="1"/><feColorMatrix values="0 0 0 0 0.0627451 0 0 0 0 0.0941176 0 0 0 0 0.156863 0 0 0 0.06 0"/><feBlend in2="BackgroundImageFix" result="effect1_dropShadow_91_25916"/><feColorMatrix in="SourceAlpha" result="hardAlpha" values="0 0 0 0 0 0 0 0 0 0 0 0 0 0 0 0 0 0 127 0"/><feOffset dy="1"/><feGaussianBlur stdDeviation="1.5"/><feColorMatrix values="0 0 0 0 0.0627451 0 0 0 0 0.0941176 0 0 0 0 0.156863 0 0 0 0.1 0"/><feBlend in2="effect1_dropShadow_91_25916" result="effect2_dropShadow_91_25916"/><feBlend in="SourceGraphic" in2="effect2_dropShadow_91_25916" result="shape"/></filter></defs></svg>
